dist/img/sprites/for-who-ico-1.svg

<svg width="209" height="209" viewBox="0 0 209 209" fill="none" xmlns="http://www.w3.org/2000/svg">
<path d="M105.65 189.781C89.0227 189.771 72.7719 184.761 58.9517 175.384C45.1315 166.006 34.3628 152.684 28.0068 137.1C21.6508 121.516 19.9929 104.37 23.2429 87.8304C26.493 71.2908 34.5048 56.1 46.2657 44.1783C58.0266 32.2567 73.0086 24.1396 89.3172 20.8532C105.626 17.5668 122.529 19.2586 137.89 25.7149C153.25 32.1712 166.379 43.102 175.616 57.1254C184.852 71.1487 189.782 87.635 189.782 104.5C189.744 127.115 180.867 148.792 165.096 164.779C149.325 180.765 127.947 189.757 105.65 189.781ZM105.65 24.3248C90.0367 24.335 74.7771 29.0406 61.8 37.8463C48.8229 46.652 38.7111 59.1625 32.7431 73.7964C26.7752 88.4303 25.2189 104.53 28.2711 120.061C31.3234 135.592 38.8472 149.856 49.891 161.051C60.9349 172.245 75.0035 179.867 90.3176 182.953C105.632 186.039 121.504 184.45 135.928 178.387C150.351 172.324 162.679 162.06 171.352 148.892C180.026 135.724 184.655 120.243 184.655 104.406C184.62 83.1693 176.283 62.8132 161.473 47.8012C146.663 32.7893 126.588 24.3468 105.65 24.3248Z" fill="#2C2A2D"/>
<path d="M81.7259 112.908C80.2474 112.901 78.8304 112.305 77.7815 111.247L61.3758 94.5944C60.1924 93.3993 59.2543 91.9779 58.6157 90.4124C57.9771 88.8468 57.6506 87.1682 57.6553 85.4738V60.1754C57.6506 58.481 57.9771 56.8025 58.6157 55.237C59.2543 53.6714 60.1924 52.2499 61.3758 51.0548L70.0869 42.2129C71.2643 41.0117 72.6646 40.0594 74.207 39.4112C75.7494 38.763 77.4031 38.4318 79.0725 38.4366H116.927C118.409 38.4394 119.829 39.038 120.877 40.1016C121.925 41.1652 122.515 42.6071 122.517 44.1112V51.5397C122.518 52.286 122.373 53.025 122.09 53.7139C121.807 54.4028 121.393 55.028 120.871 55.5532L96.5463 80.2429C95.1264 81.6862 94.3258 83.6406 94.3198 85.6802L94.2081 107.233C94.1922 108.727 93.5998 110.155 92.5583 111.21C91.5168 112.265 90.1093 112.864 88.6378 112.877H81.7562L81.7259 112.908ZM79.0725 43.5954C78.0711 43.5923 77.0795 43.7913 76.1546 44.181C75.2297 44.5707 74.3902 45.1432 73.6853 45.8651L64.9742 54.6969C64.2635 55.415 63.6998 56.2688 63.316 57.2092C62.9322 58.1495 62.7356 59.1576 62.7378 60.1754V85.4738C62.7345 86.4918 62.9306 87.5004 63.3145 88.4408C63.6984 89.3813 64.2626 90.2351 64.9742 90.9524L81.37 107.594C81.4748 107.681 81.6017 107.734 81.7358 107.749H88.6174C88.7514 107.746 88.879 107.691 88.9738 107.595C89.0686 107.499 89.1231 107.369 89.1257 107.233L89.2374 85.6802C89.2386 83.9975 89.5682 82.3315 90.2067 80.7786C90.8452 79.2256 91.7802 77.8163 92.9579 76.6318L117.283 51.9318C117.377 51.8359 117.432 51.7066 117.435 51.5707V44.1422C117.435 44.0054 117.381 43.8741 117.286 43.7773C117.191 43.6806 117.061 43.6263 116.927 43.6263L79.0725 43.5954Z" fill="#2C2A2D"/>
<path d="M122.155 175.368H114.322C112.858 175.365 111.455 174.772 110.42 173.718C109.384 172.663 108.802 171.235 108.799 169.744V143.004C108.8 142.87 108.75 142.742 108.659 142.646L102.523 136.398C102.006 135.876 101.596 135.254 101.317 134.57C101.038 133.885 100.895 133.151 100.896 132.41V113.728C100.899 112.237 101.482 110.808 102.517 109.754C103.552 108.7 104.956 108.106 106.42 108.104H131.775C132.501 108.101 133.22 108.245 133.891 108.528C134.561 108.811 135.17 109.226 135.681 109.75L152.13 126.51C152.645 127.031 153.053 127.651 153.33 128.334C153.608 129.016 153.749 129.749 153.747 130.488V143.167C153.749 143.906 153.608 144.638 153.33 145.321C153.053 146.004 152.645 146.624 152.13 147.145L126.021 173.732C124.995 174.776 123.605 175.364 122.155 175.368ZM106.47 113.196C106.336 113.196 106.209 113.25 106.115 113.346C106.02 113.442 105.967 113.572 105.967 113.707V132.4C105.97 132.534 106.024 132.663 106.118 132.758L112.253 139.005C112.768 139.527 113.176 140.147 113.454 140.829C113.731 141.512 113.873 142.244 113.871 142.983V169.723C113.873 169.858 113.927 169.987 114.02 170.082C114.114 170.177 114.24 170.232 114.373 170.235H122.205C122.337 170.232 122.463 170.177 122.557 170.081L148.666 143.494C148.756 143.394 148.806 143.263 148.806 143.126V130.447C148.808 130.31 148.757 130.178 148.666 130.078L132.207 113.329C132.162 113.28 132.108 113.241 132.047 113.214C131.987 113.188 131.921 113.175 131.855 113.176L106.47 113.196Z" fill="#2C2A2D"/>
<path d="M36.0348 134.529H35.7959C30.7622 134.529 25.9346 136.57 22.3753 140.204C18.8159 143.838 16.8164 148.766 16.8164 153.905C16.8177 157.42 17.8563 160.853 19.7975 163.757L35.2557 186.961C35.3425 187.09 35.4588 187.196 35.5945 187.268C35.7302 187.341 35.8814 187.38 36.0348 187.38C36.1882 187.38 36.3393 187.341 36.4751 187.268C36.6108 187.196 36.7271 187.09 36.8139 186.961L52.2818 163.757C54.2158 160.85 55.2511 157.418 55.2532 153.905C55.2532 151.36 54.7619 148.841 53.8081 146.49C52.8542 144.139 51.4567 142.003 49.6943 140.204C47.9319 138.405 45.8396 136.978 43.5369 136.004C41.2342 135.03 38.7661 134.529 36.2737 134.529H36.0348Z" fill="#F0F4FC"/>
<path d="M36.0348 189.782C35.4626 189.781 34.8988 189.638 34.3929 189.365C33.887 189.092 33.454 188.697 33.1311 188.215L17.8114 165.212C15.5939 161.898 14.4098 157.976 14.4141 153.963C14.4222 148.174 16.6774 142.625 20.6859 138.531C24.6944 134.438 30.1291 132.135 35.798 132.126H36.2715C41.9404 132.135 47.3746 134.438 51.3831 138.531C55.3916 142.625 57.6473 148.174 57.6554 153.963C57.6583 157.975 56.4779 161.895 54.2682 165.212L38.9379 188.215C38.6157 188.698 38.1826 189.093 37.6766 189.366C37.1706 189.639 36.6071 189.782 36.0348 189.782ZM35.798 137.383C31.4944 137.391 27.3692 139.141 24.3261 142.248C21.283 145.356 19.57 149.568 19.5619 153.963C19.5603 156.922 20.4319 159.812 22.0634 162.258L36.0348 183.221L50.0057 162.258C51.6372 159.812 52.5092 156.922 52.5077 153.963C52.5022 149.567 50.7896 145.353 47.746 142.245C44.7023 139.137 40.5759 137.389 36.2715 137.383H35.798Z" fill="#2C2A2D"/>
<path d="M34.8329 158.552C36.8231 158.552 38.4364 156.401 38.4364 153.747C38.4364 151.094 36.8231 148.943 34.8329 148.943C32.8428 148.943 31.2295 151.094 31.2295 153.747C31.2295 156.401 32.8428 158.552 34.8329 158.552Z" fill="#F0F4FC"/>
<path d="M36.0342 160.954C34.6084 160.954 33.2144 160.531 32.0289 159.739C30.8435 158.946 29.9197 157.82 29.3746 156.503C28.8294 155.185 28.6875 153.735 28.9665 152.337C29.2454 150.939 29.9326 149.655 30.9415 148.647C31.9505 147.64 33.2355 146.954 34.6343 146.677C36.033 146.4 37.4827 146.545 38.7994 147.092C40.1162 147.639 41.2408 148.564 42.0315 149.751C42.8221 150.937 43.243 152.332 43.2409 153.757C43.2382 155.667 42.4777 157.497 41.1264 158.847C39.7751 160.196 37.9439 160.954 36.0342 160.954ZM36.0342 151.781C35.6432 151.781 35.2607 151.897 34.9356 152.114C34.6105 152.331 34.3574 152.64 34.2078 153.001C34.0582 153.362 34.0186 153.76 34.0949 154.143C34.1712 154.527 34.3598 154.879 34.6363 155.155C34.9128 155.432 35.2651 155.62 35.6486 155.696C36.0321 155.773 36.4294 155.733 36.7907 155.584C37.1519 155.434 37.4606 155.181 37.6778 154.856C37.8951 154.531 38.0108 154.148 38.0108 153.757C38.0108 153.498 37.96 153.241 37.8607 153.001C37.7613 152.761 37.6157 152.543 37.4322 152.36C37.2486 152.176 37.0305 152.03 36.7907 151.931C36.5508 151.832 36.2939 151.781 36.0342 151.781Z" fill="#2C2A2D"/>
<path d="M166.954 28.8274H166.645C160.04 28.8301 153.705 31.4289 149.034 36.0527C144.363 40.6765 141.738 46.9469 141.735 53.486C141.737 57.96 143.097 62.3304 145.64 66.0295L165.935 95.5525C166.049 95.7186 166.202 95.8546 166.382 95.9486C166.561 96.0426 166.762 96.0918 166.965 96.0918C167.168 96.0918 167.368 96.0426 167.547 95.9486C167.727 95.8546 167.881 95.7186 167.995 95.5525L188.289 66.0295C190.829 62.3295 192.186 57.9591 192.184 53.486C192.184 46.9478 189.561 40.6774 184.891 36.0533C180.222 31.4292 173.889 28.8301 167.284 28.8274H166.954Z" fill="#F0F4FC"/>
<path d="M166.959 98.4944C166.341 98.4944 165.733 98.3445 165.187 98.0578C164.641 97.7712 164.173 97.3566 163.826 96.85L143.654 67.4134C140.834 63.3153 139.327 58.4681 139.333 53.507C139.341 46.327 142.222 39.4434 147.344 34.3663C152.465 29.2893 159.409 26.4335 166.652 26.4254H167.277C174.519 26.4335 181.462 29.2896 186.582 34.3669C191.702 39.4443 194.58 46.3279 194.586 53.507C194.598 58.4691 193.091 63.3181 190.265 67.4134L170.103 96.85C169.754 97.3568 169.285 97.7714 168.737 98.058C168.189 98.3445 167.579 98.4943 166.959 98.4944ZM166.652 31.5007C160.767 31.5087 155.125 33.8298 150.964 37.9551C146.803 42.0803 144.461 47.673 144.453 53.507C144.447 57.4517 145.646 61.3056 147.893 64.561L166.959 92.3532L186.036 64.561C188.28 61.3047 189.476 57.4507 189.466 53.507C189.461 47.674 187.122 42.0812 182.962 37.9557C178.802 33.8301 173.161 31.5088 167.277 31.5007H166.652Z" fill="#2C2A2D"/>
<path d="M166.96 62.4598C165.296 62.4598 163.67 61.9663 162.287 61.042C160.905 60.1177 159.827 58.804 159.191 57.267C158.555 55.7301 158.389 54.0389 158.714 52.4076C159.039 50.7764 159.841 49.2783 161.018 48.1028C162.195 46.9273 163.694 46.1273 165.326 45.804C166.958 45.4807 168.648 45.6486 170.184 46.2866C171.721 46.9245 173.033 48.0038 173.956 49.3878C174.879 50.7718 175.37 52.3984 175.368 54.0618C175.365 56.29 174.478 58.4261 172.902 60.0007C171.325 61.5753 169.188 62.4598 166.96 62.4598ZM166.96 50.7128C166.297 50.7128 165.65 50.9093 165.099 51.2773C164.548 51.6453 164.119 52.1683 163.865 52.7803C163.612 53.3922 163.546 54.0655 163.675 54.7152C163.804 55.3648 164.123 55.9616 164.592 56.43C165.06 56.8984 165.657 57.2173 166.307 57.3466C166.956 57.4758 167.629 57.4095 168.241 57.156C168.853 56.9025 169.377 56.4732 169.745 55.9225C170.113 55.3717 170.309 54.7242 170.309 54.0618C170.309 53.622 170.222 53.1866 170.054 52.7803C169.886 52.3739 169.639 52.0047 169.328 51.6937C169.017 51.3827 168.648 51.136 168.241 50.9677C167.835 50.7994 167.399 50.7128 166.96 50.7128Z" fill="#2C2A2D"/>
<path d="M105.701 209C88.1112 208.999 70.7896 204.799 55.2529 196.767L57.761 192.184C72.5271 199.811 88.9866 203.8 105.701 203.803V209Z" fill="#2C2A2D"/>
<path d="M153.702 196.989L151.345 192.33C167.206 183.871 180.498 171.091 189.766 155.388C199.035 139.685 203.923 121.665 203.896 103.299H209C209.028 122.626 203.885 141.588 194.132 158.112C184.379 174.636 170.393 188.085 153.702 196.989Z" fill="#2C2A2D"/>
<path d="M25.9771 40.8389C25.5064 40.8355 25.0373 40.7804 24.5795 40.6746L18.7046 39.2679C17.2508 38.9326 15.9873 38.0641 15.1794 36.8448L7.76935 26.7415C7.26222 25.9726 7.08882 25.0404 7.2871 24.1481C7.48537 23.2558 8.03926 22.4756 8.82793 21.9775L11.9298 20.078C12.4583 19.7546 13.0653 19.5721 13.6897 19.5487C14.3141 19.5252 14.9337 19.6617 15.4864 19.9445L23.754 24.1849C23.9149 24.2751 24.0975 24.3226 24.2833 24.3226C24.4691 24.3226 24.6517 24.2751 24.8126 24.1849L32.8579 19.2566L18.3975 8.41411L18.1541 8.03422C17.6469 7.26526 17.4735 6.33312 17.6718 5.44078C17.8701 4.54845 18.424 3.7682 19.2127 3.2701L23.6801 0.539041C24.1752 0.232397 24.741 0.0502283 25.3269 0.0089977C25.9128 -0.0322329 26.5002 0.068669 27.0357 0.302784L46.6509 9.60518C47.0135 9.75043 47.4072 9.8086 47.7979 9.77463C48.1887 9.74066 48.5651 9.61551 48.8953 9.41003L59.7565 2.75673C60.5412 2.26967 61.4183 1.93978 62.3363 1.78638C63.2544 1.63297 64.1947 1.65915 65.1022 1.86346L69.2626 2.767C70.1756 2.96946 71.0374 3.34602 71.7989 3.87484C72.5604 4.40366 73.2062 5.07416 73.698 5.84725L76.8737 10.7346L29.0469 40.038C28.1177 40.5706 27.0564 40.8475 25.9771 40.8389ZM13.2742 25.3657L19.6256 34.0315C19.7073 34.1586 19.836 34.2505 19.9854 34.2882L25.8608 35.6846C25.9377 35.7039 26.0176 35.7075 26.096 35.6951C26.1744 35.6827 26.2491 35.6546 26.3157 35.6126L69.6647 9.06097L69.3044 8.50649C69.1799 8.31196 69.0165 8.14367 68.8237 8.01141C68.631 7.87915 68.4134 7.78561 68.1828 7.73643L64.0224 6.82273C63.7923 6.77185 63.554 6.76554 63.3215 6.80431C63.089 6.84307 62.867 6.92613 62.6676 7.04859L51.8063 13.7019C50.726 14.3675 49.4921 14.7629 48.2156 14.8525C46.939 14.9421 45.6593 14.7231 44.4914 14.2153L25.7761 5.33387L24.273 6.25797L42.1204 19.6057L27.6813 28.4562C26.7373 29.0333 25.6531 29.3589 24.5381 29.4004C23.4231 29.4419 22.3166 29.1976 21.3298 28.6924L13.9198 24.914L13.2742 25.3657Z" fill="#2C2A2D"/>
<path d="M35.6645 28.8275L28.8271 22.6856L33.0013 19.2183L40.8386 25.9991L35.6645 28.8275Z" fill="#F0F4FC"/>
<path d="M1.03885 117.712C0.359693 113.126 0.0125974 108.501 1.52967e-05 103.869C-0.00564455 93.9037 1.55936 83.9941 4.6433 74.4711L9.6092 75.9246C6.67447 84.9761 5.18616 94.3961 5.19417 103.869C5.19415 108.275 5.5134 112.676 6.14981 117.04L1.03885 117.712Z" fill="#2C2A2D"/>
</svg>

<svg width="209" height="209" viewBox="0 0 209 209" fill="none" xmlns="http://www.w3.org/2000/svg"><path d="M105.65 189.781c-16.627-.01-32.878-5.02-46.698-14.397-13.82-9.378-24.59-22.7-30.945-38.284a86.416 86.416 0 01-4.764-49.27c3.25-16.54 11.262-31.73 23.023-43.652 11.76-11.921 26.743-20.038 43.051-23.325a82.982 82.982 0 0148.573 4.862c15.36 6.456 28.489 17.387 37.726 31.41 9.236 14.024 14.166 30.51 14.166 47.375-.038 22.615-8.915 44.292-24.686 60.279-15.771 15.986-37.149 24.978-59.446 25.002zm0-165.456c-15.613.01-30.873 4.716-43.85 13.521-12.977 8.806-23.089 21.317-29.057 35.95a81.145 81.145 0 00-4.472 46.265c3.052 15.531 10.576 29.795 21.62 40.99 11.044 11.194 25.113 18.816 40.427 21.902a77.917 77.917 0 0045.61-4.566c14.423-6.063 26.751-16.327 35.424-29.495 8.674-13.168 13.303-28.649 13.303-44.486-.035-21.237-8.372-41.593-23.182-56.605-14.81-15.012-34.885-23.454-55.823-23.476z" fill="#2C2A2D"/><path d="M81.726 112.908a5.59 5.59 0 01-3.945-1.661L61.376 94.594a12.828 12.828 0 01-2.76-4.182 12.984 12.984 0 01-.96-4.938V60.175a12.982 12.982 0 01.96-4.938 12.828 12.828 0 012.76-4.182l8.71-8.842a12.614 12.614 0 014.121-2.802 12.463 12.463 0 014.866-.974h37.854a5.56 5.56 0 013.95 1.665 5.725 5.725 0 011.64 4.01v7.428a5.702 5.702 0 01-1.646 4.013l-24.325 24.69a7.787 7.787 0 00-2.226 5.437l-.112 21.553a5.749 5.749 0 01-1.65 3.977 5.578 5.578 0 01-3.92 1.667h-6.882l-.03.031zm-2.653-69.313a7.453 7.453 0 00-2.918.586 7.55 7.55 0 00-2.47 1.684l-8.71 8.832a7.715 7.715 0 00-1.659 2.512 7.806 7.806 0 00-.578 2.966v25.299a7.786 7.786 0 00.577 2.967c.383.94.948 1.794 1.66 2.511l16.395 16.642c.105.087.232.14.366.155h6.881a.517.517 0 00.357-.154.53.53 0 00.152-.362l.111-21.553c.002-1.683.331-3.349.97-4.901a12.764 12.764 0 012.75-4.147l24.326-24.7a.533.533 0 00.152-.361v-7.429a.522.522 0 00-.149-.365.505.505 0 00-.359-.15l-37.855-.032zm43.082 131.773h-7.833a5.483 5.483 0 01-3.902-1.65 5.687 5.687 0 01-1.621-3.974v-26.74a.514.514 0 00-.14-.358l-6.136-6.248a5.607 5.607 0 01-1.206-1.828 5.707 5.707 0 01-.421-2.16v-18.682a5.69 5.69 0 011.621-3.974 5.482 5.482 0 013.903-1.65h25.355a5.385 5.385 0 012.116.424c.67.283 1.279.698 1.79 1.222l16.449 16.76a5.574 5.574 0 011.2 1.824 5.67 5.67 0 01.417 2.154v12.679a5.673 5.673 0 01-.417 2.154 5.574 5.574 0 01-1.2 1.824l-26.109 26.587a5.441 5.441 0 01-3.866 1.636zm-15.685-62.172a.496.496 0 00-.355.15.513.513 0 00-.148.361V132.4a.527.527 0 00.151.358l6.135 6.247a5.614 5.614 0 011.201 1.824c.277.683.419 1.415.417 2.154v26.74a.513.513 0 00.502.512h7.832a.509.509 0 00.352-.154l26.109-26.587a.55.55 0 00.14-.368v-12.679a.538.538 0 00-.14-.369l-16.459-16.749a.467.467 0 00-.352-.153l-25.385.02z" fill="#2C2A2D"/><path d="M36.035 134.529h-.24c-5.033 0-9.86 2.041-13.42 5.675-3.56 3.634-5.559 8.562-5.559 13.701a17.747 17.747 0 002.982 9.852l15.458 23.204a.942.942 0 00.779.419.942.942 0 00.78-.419l15.467-23.204a17.814 17.814 0 002.971-9.852c0-2.545-.491-5.064-1.445-7.415a19.404 19.404 0 00-4.114-6.286 18.966 18.966 0 00-6.157-4.2 18.639 18.639 0 00-7.263-1.475h-.24z" fill="#F0F4FC"/><path d="M36.035 189.782a3.47 3.47 0 01-1.642-.417 3.55 3.55 0 01-1.262-1.15l-15.32-23.003a20.2 20.2 0 01-3.397-11.249c.008-5.789 2.263-11.338 6.272-15.432 4.008-4.093 9.443-6.396 15.112-6.405h.474c5.668.009 11.103 2.312 15.111 6.405 4.009 4.094 6.264 9.643 6.272 15.432a20.273 20.273 0 01-3.387 11.249l-15.33 23.003a3.536 3.536 0 01-1.261 1.151 3.456 3.456 0 01-1.642.416zm-.237-52.399c-4.304.008-8.429 1.758-11.472 4.865-3.043 3.108-4.756 7.32-4.764 11.715a14.94 14.94 0 002.501 8.295l13.972 20.963 13.97-20.963a14.94 14.94 0 002.503-8.295c-.006-4.396-1.718-8.61-4.762-11.718-3.044-3.108-7.17-4.856-11.474-4.862h-.474z" fill="#2C2A2D"/><path d="M34.833 158.552c1.99 0 3.603-2.151 3.603-4.805 0-2.653-1.613-4.804-3.603-4.804-1.99 0-3.603 2.151-3.603 4.804 0 2.654 1.613 4.805 3.603 4.805z" fill="#F0F4FC"/><path d="M36.034 160.954a7.21 7.21 0 01-6.66-4.451 7.209 7.209 0 019.425-9.411 7.203 7.203 0 014.442 6.665 7.209 7.209 0 01-7.207 7.197zm0-9.173a1.98 1.98 0 00-1.826 1.22 1.977 1.977 0 101.826-1.22z" fill="#2C2A2D"/><path d="M166.954 28.827h-.309a25.05 25.05 0 00-17.611 7.226 24.544 24.544 0 00-7.299 17.433 22.154 22.154 0 003.905 12.544l20.295 29.522a1.257 1.257 0 002.06 0l20.294-29.522a22.14 22.14 0 003.895-12.544 24.53 24.53 0 00-7.293-17.433 25.037 25.037 0 00-17.607-7.226h-.33z" fill="#F0F4FC"/><path d="M166.959 98.494a3.82 3.82 0 01-1.772-.436 3.776 3.776 0 01-1.361-1.208l-20.172-29.437a24.477 24.477 0 01-4.321-13.906 26.992 26.992 0 018.011-19.14 27.47 27.47 0 0119.308-7.942h.625a27.462 27.462 0 0119.305 7.942 26.985 26.985 0 018.004 19.14 24.377 24.377 0 01-4.321 13.906L170.103 96.85a3.79 3.79 0 01-1.366 1.208 3.839 3.839 0 01-1.778.436zm-.307-66.993a22.327 22.327 0 00-15.688 6.454 21.941 21.941 0 00-6.511 15.552 19.403 19.403 0 003.44 11.054l19.066 27.792 19.077-27.792a19.39 19.39 0 003.43-11.054 21.927 21.927 0 00-6.504-15.551 22.32 22.32 0 00-15.685-6.455h-.625z" fill="#2C2A2D"/><path d="M166.96 62.46a8.41 8.41 0 01-5.942-14.357 8.408 8.408 0 115.942 14.357zm0-11.747a3.35 3.35 0 100 6.699 3.35 3.35 0 000-6.7zM105.701 209c-17.59-.001-34.911-4.201-50.448-12.233l2.508-4.583c14.766 7.627 31.226 11.616 47.94 11.619V209zm48.001-12.011l-2.357-4.659c15.861-8.459 29.153-21.239 38.421-36.942 9.269-15.703 14.157-33.723 14.13-52.089H209c.028 19.327-5.115 38.289-14.868 54.813s-23.739 29.973-40.43 38.877zM25.977 40.839a6.415 6.415 0 01-1.398-.164l-5.874-1.407a5.779 5.779 0 01-3.526-2.423L7.77 26.74a3.373 3.373 0 01-.482-2.593 3.461 3.461 0 011.54-2.17l3.103-1.9a3.646 3.646 0 013.557-.133l8.267 4.24a1.083 1.083 0 001.059 0l8.045-4.928-14.46-10.843-.244-.38a3.373 3.373 0 01-.482-2.593 3.462 3.462 0 011.54-2.17L23.68.538a3.633 3.633 0 013.356-.236L46.65 9.605a2.504 2.504 0 002.244-.195l10.861-6.653a7.117 7.117 0 012.58-.97 7.198 7.198 0 012.766.076l4.16.904A7.166 7.166 0 0171.8 3.875a6.939 6.939 0 011.899 1.972l3.176 4.888-47.827 29.303a6.08 6.08 0 01-3.07.8zM13.274 25.366l6.352 8.666c.081.127.21.219.36.256l5.875 1.397a.588.588 0 00.455-.072L69.665 9.06l-.36-.555a1.735 1.735 0 00-.481-.495 1.793 1.793 0 00-.641-.275l-4.16-.913a1.844 1.844 0 00-1.355.226l-10.862 6.653a7.951 7.951 0 01-7.315.513l-18.715-8.88-1.503.924L42.12 19.606l-14.439 8.85a6.514 6.514 0 01-6.352.236l-7.41-3.778-.645.452z" fill="#2C2A2D"/><path d="M35.664 28.828l-6.837-6.142 4.174-3.468L40.84 26l-5.175 2.829z" fill="#F0F4FC"/><path d="M1.039 117.712A96.266 96.266 0 010 103.869a95.198 95.198 0 014.643-29.398l4.966 1.454a90.313 90.313 0 00-4.415 27.944c0 4.406.32 8.807.956 13.171l-5.111.672z" fill="#2C2A2D"/></svg>
